svg/u1f69b.svg

<svg viewBox="0 0 128 128" xmlns="http://www.w3.org/2000/svg">
  <polygon points="63.44,97.98 63.41,109.37 74.21,109.25 74.16,97.98 " fill="#5E6366"/>
  <polygon points="84.89,96.4 84.75,113.74 120.83,113.18 120.69,95.56 " fill="#808378"/>
  <polygon points="4.02,113.91 80.66,114.16 80.57,105.13 51.63,105.28 51.77,97.81 27.38,85.97 4.01,106.43 " fill="#808378"/>
  <path d="M1.31,105.99c0.46,0.77,12.4,0.42,12.4,0.42l4.23-9.16l20.44,0.7l13.39-0.14l0.3-56.81 c0,0-9.04-2.11-9.18-1.55c-0.14,0.56-2.68,8.03-2.68,8.03L15.68,48.9L9.2,65.67l-3.81,11.7v13.53L1,94.24 C1,94.24,0.88,105.28,1.31,105.99z" fill="#D70617"/>
  <path d="M55.79,32.75c-0.18,0.23-0.2,1.22-0.2,2.07c-0.01,1.92-0.02,4.36-0.02,4.36h68.64 c0,0,0.03-2.15,0.02-3.92c-0.01-1.15,0.11-2.15-0.06-2.32c-0.22-0.22-18.12-0.23-35.34-0.25C72.23,32.68,56,32.47,55.79,32.75z" fill="#C6C7C1"/>
  <path d="M60.59,94.57l-5.05,3.49c0,0-0.16,2.03,0.49,2.77c0.31,0.35,15.39,0.08,31.59,0.01 c17.58-0.08,36.13-0.1,36.37-0.29c0.46-0.37,0.33-3.93,0.33-3.93L60.59,94.57z" fill="#C6C7C1"/>
  <path d="M63.41,37.86l-7.84,1.32l0.06,53.59l38.87,2.79l29.74-2.79l-0.03-51.81l-32.92-3.33 C91.29,37.63,63.3,37.4,63.41,37.86z" fill="#E1E1E1"/>
  <path d="M68.52,94.73l-2.5-0.02c0-0.49,0.37-49.15,0.37-54.56h2.5C68.89,45.57,68.52,94.24,68.52,94.73z" fill="#B0B0B0"/>
  <rect height="2.5" fill="#B0B0B0" transform="matrix(4.687448e-03 -1 1 4.687448e-03 15.274 149.0388)" width="53.83" x="55.59" y="65.6"/>
  <rect height="54.2" fill="#B0B0B0" width="2.5" x="96.05" y="40.02"/>
  <rect height="53.83" fill="#B0B0B0" transform="matrix(1 -2.322263e-03 2.322263e-03 1 -0.1554 0.261)" width="2.5" x="111.06" y="40.15"/>
  <polygon points="55.58,35.62 124.25,35.87 124.25,41.75 55.58,41.31 " fill="#4F8B26"/>
  <path d="M55.62,92.74c0,0,68.53-0.3,68.63,0c0.11,0.3,0.09,5.08,0.09,5.08l-68.8,0.24L55.62,92.74z" fill="#4F8B26"/>
  <path d="M52.07,41.01c0,0-4.34,0.55-6.7,2.92c-2.37,2.37-3.31,6.15-3.31,6.15L17.3,50.31L7.84,78.06 l-0.39,3.55v12.46l-6.49,0.28c0,0,0.03-4.3,0.35-4.62s2.52-0.16,2.52-0.16S3.58,77.35,3.9,76.64c0.32-0.71,9.85-26.8,10.25-27.51 s0.79-2.44,2.52-2.52c1.73-0.08,20.26-0.39,20.26-0.39s0.16-6.31,5.28-10.33c5.19-4.07,10.01-3.15,10.01-3.15L52.07,41.01z" fill="#F92610"/>
  <path d="M38.93,97.94c0,0,0.71-3.27-0.99-4.51c-1.53-1.12-7.62-1.44-12.66-1.38 c-6.37,0.08-9.38,0.39-11.82,4.21c-2.21,3.48-1.64,7.72-1.47,8.49c0.29,1.42,1.3,2.36,2.65,2.3s2.6-0.53,2.6-2.71 c0-2.93,1.47-4.48,3.24-5.25s3.95-0.94,7.61-0.94S38.93,97.94,38.93,97.94z" fill="#F92610"/>
  <path d="M6.09,106.47c-0.02,0.16,0.01-4.44-0.01-7.88c-0.01-3.13-0.1-8.19,0.41-8.38 c0.45-0.16,3.24-0.41,3.72,0.18c0.47,0.59,0.19,16.08,0.19,16.08s-1.16,0.04-2.09,0.04S6.09,106.47,6.09,106.47z" fill="#C7C9C9"/>
  <path d="M23.44,49.81c-1.3,0.25-1.9,1-1.96,2.54c-0.07,1.89,0.06,26.72,0.12,27.49 c0.06,0.77,0.59,1.85,3.01,1.89c4.31,0.06,8.61,0.12,10.2,0c1.24-0.09,1.71-1.12,1.83-2.6c0.12-1.47-0.12-25.66-0.06-26.9 c0.04-0.89-0.18-2.54-3.05-2.54C32.48,49.7,24.53,49.6,23.44,49.81z" fill="#C7C9C9"/>
  <path d="M25.23,52.49c-0.9,0.21-1.15,0.83-1.19,2.1c-0.05,1.56,0,21.97,0.04,22.6 c0.04,0.63,0.29,1.63,1.96,1.66c2.98,0.05,5.97,0.1,7.07,0c0.86-0.08,1.19-0.93,1.27-2.14c0.08-1.22-0.08-21.19-0.04-22.21 c0.03-0.74-0.12-2.09-2.11-2.09C31.49,52.39,25.99,52.31,25.23,52.49z" fill="#B0E2FD"/>
  <path d="M18.59,51.64c-0.11-1.23-0.51-1.31-1.29-1.33c-0.78-0.02-1.31,0.15-1.72,1.1 c-0.41,0.94-8.55,24.18-8.67,24.89c-0.07,0.45-0.17,2.38-0.16,3.83c0.01,0.86-0.04,1.38,0.54,1.64c0.31,0.14,2.14,0.21,4.93,0.19 c3.24-0.02,5.01-0.06,5.66-0.77c0.83-0.9,0.57-3.96,0.59-6.08C18.54,66.49,18.63,52.15,18.59,51.64z" fill="#C7C9C9"/>
  <path d="M16.46,55.95c-0.53-0.06-7.31,20.7-7.31,21.06s-0.12,2.18,0,2.3c0.19,0.19,1.79,0.19,3.36,0.18 c1.57-0.01,3.1-0.03,3.36-0.24c0.53-0.41,0.25-5.61,0.41-11.09C16.46,62.2,16.74,55.98,16.46,55.95z" fill="#B0E2FD"/>
  <path d="M28.42,104.19c-6.36,0.11-10.35,5.03-9.87,10.73c0.47,5.7,4.93,9.02,10.06,9.02 c5.22,0,9.59-3.32,9.78-9.59C38.57,108.08,34.11,104.09,28.42,104.19z" fill="#524745"/>
  <path d="M28.32,109.22c-2.37,0.07-4.37,1.67-4.46,4.65c-0.07,2.32,1.8,4.28,4.37,4.46 c3.03,0.22,4.84-2.04,4.75-4.65C32.9,111.64,31.55,109.12,28.32,109.22z" fill="#C8C8C8"/>
  <path d="M78.84,114.79c0.29-6.35-4.37-10.64-10.09-10.53c-5.71,0.12-9.31,4.36-9.63,9.48 c-0.33,5.21,2.72,9.78,8.96,10.36C74.32,124.68,78.58,120.48,78.84,114.79z" fill="#524745"/>
  <path d="M73.5,114.27c0.06-2.37-1.37-4.46-4.29-4.74c-2.28-0.22-4.32,1.54-4.66,4.08 c-0.41,3.01,1.71,4.96,4.27,5.02C70.83,118.69,73.42,117.5,73.5,114.27z" fill="#C8C8C8"/>
  <path d="M103.67,112.35c-1.12-6.26-6.63-9.41-12.17-8.02c-5.55,1.38-8.11,6.32-7.29,11.38 c0.84,5.15,4.82,8.93,11.03,8.11S104.68,117.96,103.67,112.35z" fill="#524745"/>
  <path d="M98.49,113.26c-0.45-2.33-2.35-4.04-5.3-3.66c-2.3,0.3-3.93,2.47-3.7,5.03 c0.27,3.03,2.8,4.45,5.35,3.94C96.84,118.16,99.11,116.43,98.49,113.26z" fill="#C8C8C8"/>
  <path d="M111.14,123.76c6.32,0.67,10.89-3.73,11.11-9.44c0.23-5.71-3.79-9.55-8.88-10.18 c-5.18-0.64-9.92,2.12-10.88,8.32C101.53,118.65,105.47,123.15,111.14,123.76z" fill="#524745"/>
  <path d="M111.97,118.45c2.37,0.2,4.54-1.1,4.99-4c0.35-2.26-1.11-4.86-3.78-5.21 c-3.01-0.4-5.07,1.72-5.29,4.28C107.72,115.53,108.75,118.18,111.97,118.45z" fill="#C8C8C8"/>
</svg>

<svg viewBox="0 0 128 128" xmlns="http://www.w3.org/2000/svg">
  <defs/>
  <path d="M63.44,97.98 L63.41,109.37 L74.21,109.25 L74.16,97.98 Z" fill="#5E6366"/>
  <path d="M84.89,96.4 L84.75,113.74 L120.83,113.18 L120.69,95.56 Z" fill="#808378"/>
  <path d="M4.02,113.91 L80.66,114.16 L80.57,105.13 L51.63,105.28 L51.77,97.81 L27.38,85.97 L4.01,106.43 Z" fill="#808378"/>
  <path d="M1.31,105.99 C1.77,106.76 13.71,106.41 13.71,106.41 L17.94,97.25 L38.38,97.95 L51.77,97.81 L52.07,41 C52.07,41 43.03,38.89 42.89,39.45 C42.75,40.01 40.21,47.48 40.21,47.48 L15.68,48.9 L9.2,65.67 L5.39,77.37 L5.39,90.9 L1,94.24 C1,94.24 0.88,105.28 1.31,105.99 Z" fill="#D70617"/>
  <path d="M55.79,32.75 C55.61,32.98 55.59,33.97 55.59,34.82 C55.58,36.74 55.57,39.18 55.57,39.18 L124.21,39.18 C124.21,39.18 124.24,37.03 124.23,35.26 C124.22,34.11 124.34,33.11 124.17,32.94 C123.95,32.72 106.05,32.71 88.83,32.69 C72.23,32.68 56,32.47 55.79,32.75 Z" fill="#C6C7C1"/>
  <path d="M60.59,94.57 L55.54,98.06 C55.54,98.06 55.38,100.09 56.03,100.83 C56.34,101.18 71.42,100.91 87.62,100.84 C105.2,100.76 123.75,100.74 123.99,100.55 C124.45,100.18 124.32,96.62 124.32,96.62 L60.59,94.57 Z" fill="#C6C7C1"/>
  <path d="M63.41,37.86 L55.57,39.18 L55.63,92.77 L94.5,95.56 L124.24,92.77 L124.21,40.96 L91.29,37.63 C91.29,37.63 63.3,37.4 63.41,37.86 Z" fill="#E1E1E1"/>
  <path d="M68.52,94.73 L66.02,94.71 C66.02,94.22 66.39,45.56 66.39,40.15 L68.89,40.15 C68.89,45.57 68.52,94.24 68.52,94.73 Z" fill="#B0B0B0"/>
  <path d="M81.135,93.756 L81.387,39.926 L83.887,39.938 L83.635,93.768 L81.135,93.756 Z" fill="#B0B0B0"/>
  <path d="M96.05,40.02 L98.55,40.02 L98.55,94.22 L96.05,94.22 L96.05,40.02 Z" fill="#B0B0B0"/>
  <path d="M110.998,40.153 L113.498,40.147 L113.623,93.977 L111.123,93.983 L110.998,40.153 Z" fill="#B0B0B0"/>
  <path d="M55.58,35.62 L124.25,35.87 L124.25,41.75 L55.58,41.31 Z" fill="#4F8B26"/>
  <path d="M55.62,92.74 C55.62,92.74 124.15,92.44 124.25,92.74 C124.36,93.04 124.34,97.82 124.34,97.82 L55.54,98.06 L55.62,92.74 Z" fill="#4F8B26"/>
  <path d="M52.07,41.01 C52.07,41.01 47.73,41.56 45.37,43.93 C43,46.3 42.06,50.08 42.06,50.08 L17.3,50.31 L7.84,78.06 L7.45,81.61 L7.45,94.07 L0.96,94.35 C0.96,94.35 0.99,90.05 1.31,89.73 C1.63,89.41 3.83,89.57 3.83,89.57 C3.83,89.57 3.58,77.35 3.9,76.64 C4.22,75.93 13.75,49.84 14.15,49.13 C14.55,48.42 14.94,46.69 16.67,46.61 C18.4,46.53 36.93,46.22 36.93,46.22 C36.93,46.22 37.09,39.91 42.21,35.89 C47.4,31.82 52.22,32.74 52.22,32.74 L52.07,41.01 Z" fill="#F92610"/>
  <path d="M38.93,97.94 C38.93,97.94 39.64,94.67 37.94,93.43 C36.41,92.31 30.32,91.99 25.28,92.05 C18.91,92.13 15.9,92.44 13.46,96.26 C11.25,99.74 11.82,103.98 11.99,104.75 C12.28,106.17 13.29,107.11 14.64,107.05 C15.99,106.99 17.24,106.52 17.24,104.34 C17.24,101.41 18.71,99.86 20.48,99.09 C22.25,98.32 24.43,98.15 28.09,98.15 C31.75,98.15 38.93,97.94 38.93,97.94 Z" fill="#F92610"/>
  <path d="M6.09,106.47 C6.07,106.63 6.1,102.03 6.08,98.59 C6.07,95.46 5.98,90.4 6.49,90.21 C6.94,90.05 9.73,89.8 10.21,90.39 C10.68,90.98 10.4,106.47 10.4,106.47 C10.4,106.47 9.24,106.51 8.31,106.51 C7.38,106.51 6.09,106.47 6.09,106.47 Z" fill="#C7C9C9"/>
  <path d="M23.44,49.81 C22.14,50.06 21.54,50.81 21.48,52.35 C21.41,54.24 21.54,79.07 21.6,79.84 C21.66,80.61 22.19,81.69 24.61,81.73 C28.92,81.79 33.22,81.85 34.81,81.73 C36.05,81.64 36.52,80.61 36.64,79.13 C36.76,77.66 36.52,53.47 36.58,52.23 C36.62,51.34 36.4,49.69 33.53,49.69 C32.48,49.7 24.53,49.6 23.44,49.81 Z" fill="#C7C9C9"/>
  <path d="M25.23,52.49 C24.33,52.7 24.08,53.32 24.04,54.59 C23.99,56.15 24.04,76.56 24.08,77.19 C24.12,77.82 24.37,78.82 26.04,78.85 C29.02,78.9 32.01,78.95 33.11,78.85 C33.97,78.77 34.3,77.92 34.38,76.71 C34.46,75.49 34.3,55.52 34.34,54.5 C34.37,53.76 34.22,52.41 32.23,52.41 C31.49,52.39 25.99,52.31 25.23,52.49 Z" fill="#B0E2FD"/>
  <path d="M18.59,51.64 C18.48,50.41 18.08,50.33 17.3,50.31 C16.52,50.29 15.99,50.46 15.58,51.41 C15.17,52.35 7.03,75.59 6.91,76.3 C6.84,76.75 6.74,78.68 6.75,80.13 C6.76,80.99 6.71,81.51 7.29,81.77 C7.6,81.91 9.43,81.98 12.22,81.96 C15.46,81.94 17.23,81.9 17.88,81.19 C18.71,80.29 18.45,77.23 18.47,75.11 C18.54,66.49 18.63,52.15 18.59,51.64 Z" fill="#C7C9C9"/>
  <path d="M16.46,55.95 C15.93,55.89 9.15,76.65 9.15,77.01 C9.15,77.37 9.03,79.19 9.15,79.31 C9.34,79.5 10.94,79.5 12.51,79.49 C14.08,79.48 15.61,79.46 15.87,79.25 C16.4,78.84 16.12,73.64 16.28,68.16 C16.46,62.2 16.74,55.98 16.46,55.95 Z" fill="#B0E2FD"/>
  <path d="M28.42,104.19 C22.06,104.3 18.07,109.22 18.55,114.92 C19.02,120.62 23.48,123.94 28.61,123.94 C33.83,123.94 38.2,120.62 38.39,114.35 C38.57,108.08 34.11,104.09 28.42,104.19 Z" fill="#524745"/>
  <path d="M28.32,109.22 C25.95,109.29 23.95,110.89 23.86,113.87 C23.79,116.19 25.66,118.15 28.23,118.33 C31.26,118.55 33.07,116.29 32.98,113.68 C32.9,111.64 31.55,109.12 28.32,109.22 Z" fill="#C8C8C8"/>
  <path d="M78.84,114.79 C79.13,108.44 74.47,104.15 68.75,104.26 C63.04,104.38 59.44,108.62 59.12,113.74 C58.79,118.95 61.84,123.52 68.08,124.1 C74.32,124.68 78.58,120.48 78.84,114.79 Z" fill="#524745"/>
  <path d="M73.5,114.27 C73.56,111.9 72.13,109.81 69.21,109.53 C66.93,109.31 64.89,111.07 64.55,113.61 C64.14,116.62 66.26,118.57 68.82,118.63 C70.83,118.69 73.42,117.5 73.5,114.27 Z" fill="#C8C8C8"/>
  <path d="M103.67,112.35 C102.55,106.09 97.04,102.94 91.5,104.33 C85.95,105.71 83.39,110.65 84.21,115.71 C85.05,120.86 89.03,124.64 95.24,123.82 C101.45,123 104.68,117.96 103.67,112.35 Z" fill="#524745"/>
  <path d="M98.49,113.26 C98.04,110.93 96.14,109.22 93.19,109.6 C90.89,109.9 89.26,112.07 89.49,114.63 C89.76,117.66 92.29,119.08 94.84,118.57 C96.84,118.16 99.11,116.43 98.49,113.26 Z" fill="#C8C8C8"/>
  <path d="M111.14,123.76 C117.46,124.43 122.03,120.03 122.25,114.32 C122.48,108.61 118.46,104.77 113.37,104.14 C108.19,103.5 103.45,106.26 102.49,112.46 C101.53,118.65 105.47,123.15 111.14,123.76 Z" fill="#524745"/>
  <path d="M111.97,118.45 C114.34,118.65 116.51,117.35 116.96,114.45 C117.31,112.19 115.85,109.59 113.18,109.24 C110.17,108.84 108.11,110.96 107.89,113.52 C107.72,115.53 108.75,118.18 111.97,118.45 Z" fill="#C8C8C8"/>
</svg>
